icon/ir/text-size.svg

<svg width="24" height="24" stroke-width="1.5" fill="none" xmlns="http://www.w3.org/2000/svg"><path d="M4 8V6h12v2M10 6v12m0 0h2m-2 0H8M14 13.5V12h6v1.5M17 12v6m0 0h-1.5m1.5 0h1.5" stroke="currentColor" stroke-linecap="round" stroke-linejoin="round"/></svg>

<svg stroke-width="1.5" viewBox="0 0 24 24" fill="none" xmlns="http://www.w3.org/2000/svg" height="1em" width="1em">
  <path d="M4 8L4 6L16 6V8" stroke="currentColor" stroke-linecap="round" stroke-linejoin="round"/>
  <path d="M10 6L10 18M10 18H12M10 18H8" stroke="currentColor" stroke-linecap="round" stroke-linejoin="round"/>
  <path d="M14 13.5L14 12L20 12V13.5" stroke="currentColor" stroke-linecap="round" stroke-linejoin="round"/>
  <path d="M17 12V18M17 18H15.5M17 18H18.5" stroke="currentColor" stroke-linecap="round" stroke-linejoin="round"/>
</svg>
